X:49
T: Sher (from Khevrisa)
O:klezmer
D: "KHEVRISA - european klezmer music" Smithsonian SFW CD 40486
B: "Hebrew Wedding Melodies", Wolf Kostakowsky, Brooklyn 1916
M: 4/4
L: 1/8
K: Bm
|: "D"(fa)(ag) "A/C"(gf)fe | "Bm"efd2- d2e2 | "F#7"fg(fe) de(dc) \
|1,3 "Bm"B2d2 f2b2 :|2,4 "Bm"B2 B4 B2 :|
|: "Em"e4 e4 | "A"(ed)(dc) c4 | c2c2 a3g | "D"(gf)fe f2d2 \
|  "Em"e4 e4 | "A"(ed)(dc) c3B | "(F#m)"(A^G)AB (ce)dc | "Bm"B2 B4 B2 :|
|: "Bm"b6 f2 | b6 f2 | (fd')c'b (ab)ag | "Em"fae4 e2 \
| "A"a6 e2 | a6 e2 | (ab)ag (fg)fe | "Bm"ef d4 f2 :|
|: "Em"gg(gb) "Bm"ff(fb) | "Em"ee(eb) "Bm"d3e | "F#7"(fg)fe (de)dc \
|1,3 "Bm"B2d2 f2b2 :|2,4 "Bm"B2 B4 B2 :|4 "Bm"B2 B6 :|





